src/assets/images/price-box.svg

<svg width="208" height="93" viewBox="0 0 208 93" fill="none" xmlns="http://www.w3.org/2000/svg">
<g filter="url(#filter0_d)">
<path d="M204 4.99999C204 2.23857 201.761 -1.957e-07 199 -4.37112e-07L9 -1.70474e-05C6.23857 -1.72889e-05 4 2.23856 4 4.99998L3.99999 72.026C3.99999 74.7875 6.23856 77.026 8.99999 77.026L110.616 77.026C111.711 77.026 112.775 77.385 113.645 78.0479L120.998 83.6465C122.817 85.0311 125.343 85.0063 127.134 83.5864L134.043 78.1081C134.927 77.4074 136.022 77.026 137.15 77.026L199 77.0261C201.761 77.0261 204 74.7875 204 72.0261L204 4.99999Z" fill="#FC9B09"/>
</g>
<defs>
<filter id="filter0_d" x="0" y="0" width="208" height="92.6684" filterUnits="userSpaceOnUse" color-interpolation-filters="sRGB">
<feFlood flood-opacity="0" result="BackgroundImageFix"/>
<feColorMatrix in="SourceAlpha" type="matrix" values="0 0 0 0 0 0 0 0 0 0 0 0 0 0 0 0 0 0 127 0"/>
<feOffset dy="4"/>
<feGaussianBlur stdDeviation="2"/>
<feColorMatrix type="matrix" values="0 0 0 0 0 0 0 0 0 0 0 0 0 0 0 0 0 0 0.1 0"/>
<feBlend mode="normal" in2="BackgroundImageFix" result="effect1_dropShadow"/>
<feBlend mode="normal" in="SourceGraphic" in2="effect1_dropShadow" result="shape"/>
</filter>
</defs>
</svg>

<svg width="208" height="93" fill="none" xmlns="http://www.w3.org/2000/svg"><g filter="url(#filter0_d)"><path d="M204 5a5 5 0 00-5-5H9a5 5 0 00-5 5v67.026a5 5 0 005 5h101.616c1.095 0 2.159.359 3.029 1.022l7.353 5.599a5.001 5.001 0 006.136-.06l6.909-5.479a5.002 5.002 0 013.107-1.082H199a5 5 0 005-5V5z" fill="#FC9B09"/></g><defs><filter id="filter0_d" x="0" y="0" width="208" height="92.668" filterUnits="userSpaceOnUse" color-interpolation-filters="sRGB"><feFlood flood-opacity="0" result="BackgroundImageFix"/><feColorMatrix in="SourceAlpha" values="0 0 0 0 0 0 0 0 0 0 0 0 0 0 0 0 0 0 127 0"/><feOffset dy="4"/><feGaussianBlur stdDeviation="2"/><feColorMatrix values="0 0 0 0 0 0 0 0 0 0 0 0 0 0 0 0 0 0 0.1 0"/><feBlend in2="BackgroundImageFix" result="effect1_dropShadow"/><feBlend in="SourceGraphic" in2="effect1_dropShadow" result="shape"/></filter></defs></svg>
